X: 20970
T: Jug Of Punch, The
R: reel
M: 4/4
K: Edorian
B,E{G}ED EFGA|B2 {d}BA (3Bcd AG|FB, ~B,2 DEFG|AB{d}BA GEFD|
B,DEF G2 EF|GE ~E2 DEFA|defe dBAF|1 GE{F}ED DE{F}ED:|2 GE{F}ED E3 A||
|:B2 ef gage|fafe dB ~B2|AFAB dcde|(3fga ba fede|
B2 ef (g~g2) e|fafe dBBc|dcdB {B}=c2 {c}BA|1 GE{F}ED E3 A:|2 GE{F}ED EFED||

